X:1
T: Bold John O'Leary
C:
R:Jig
Q:180
K:D
M:6/8
L:1/16
a2|g2e2d2 c2A2G2|F2D2E2 F4G2|F2E2D2 d2e2f2|g2f2g2 e2a2g2|f2e2d2 c2A2G2|c2A2G2 F2D2F2|D2F2A2 e2a2g2|f2d2d2 d4a2|
g2e2d2 c2A2G2|F2D2E2 F4G2|F2E2D2 d2e2f2|g2f2g2 e2a2g2|f2e2d2|c2A2G2 c2A2G2|F2D2F2 D2F2A2|e2a2g2 f2d2d2|d4 fg|
a6 d2f2a2|a2g2b2 a2f2d2|g2g2g2 g2e2f2|g2e2d2 c2A2G2|F2E2D2 d2c2d2|e2d2c2 d4e2|f2e2d2 c2A2G2|A2d2c2 d4fg|
a6 d2f2a2|a2g2b2 a2f2d2|g2g2g2 g2e2f2|g2e2d2 c2A2G2|F2E2D2 d2c2d2|e2d2c2 d4e2|f2e2d2 c2A2G2|A2d2c2 d4||
